X:1
T:Sellinge, CM
T:John Pike Hullah, 1868
T:Sellinge, CM
T:Public Domain
C:John Pike Hullah, 1868
Z:Public Domain
%%score ( 1 2 ) ( 3 4 )
L:1/8
M:4/4
K:D
V:1 treble 
V:2 treble 
V:3 bass 
V:4 bass 
V:1
 [FA]2 | [GB]2 A2 [Gc]2 [Fd]2 | [EG]6 [DF]2 | [DE]2 [CB]2 [DA]2 [DB]2 | [CE]6 [DF]2 | %5
 [B,F]2 [B,E]2 [A,D]2 [Fd]2 | [Ac]2 [GB]2 [FA]2 D2 | (DC) [DF]2 [DE]2 [CE]2 | D6 |] %9
V:2
 x2 | x2 A2 x4 | x8 | x8 | x8 | x8 | x6 D2 | G2 x6 | D6 |] %9
V:3
 [D,D]2 | [G,D]2 [F,D]2 [E,G,]2 [D,A,]2 | [C,A,]6 [D,A,]2 | [G,B,]2 [G,A,]2 [F,D]2 [G,B,]2 | %4
 A,6 [D,A,]2 | [D,G,]2 [D,G,]2 [D,F,]2 [D,A,]2 | (G,A,)(B,C) [D,D]2 [F,A,]2 | %7
 [E,G,]2 [D,A,]2 [G,,B,]2 (A,G,) | [D,F,]6 |] %9
V:4
 x2 | x8 | x8 | x8 | A,6 x2 | x8 | D,2 D,2 x4 | x6 A,,2 | x6 |] %9

